build/images/content/slider/img_3.svg

<svg width="331" height="463" viewBox="0 0 331 463" fill="none" xmlns="http://www.w3.org/2000/svg">
<g filter="url(#filter0_d)">
<rect x="11" y="11" width="309" height="441" rx="20" stroke="#00BBD3" stroke-width="2"/>
</g>
<g filter="url(#filter1_d)">
<rect x="58" y="173" width="47" height="217" rx="4" transform="rotate(-90 58 173)" stroke="#00BBD3" stroke-width="2"/>
</g>
<rect opacity="0.2" width="6" height="137.999" transform="matrix(6.54216e-08 -1 -1 2.62035e-08 267 65)" fill="#00BBD3"/>
<rect opacity="0.2" width="6" height="137.999" transform="matrix(6.54216e-08 -1 -1 2.62035e-08 267 75)" fill="#00BBD3"/>
<rect opacity="0.2" width="6" height="137.999" transform="matrix(6.54216e-08 -1 -1 2.62035e-08 267 85)" fill="#00BBD3"/>
<rect opacity="0.2" width="6" height="115.328" transform="matrix(2.44881e-10 -1 -1 2.43521e-10 244.328 95)" fill="#00BBD3"/>
<path d="M57 77C57 90.8071 68.1929 102 82 102C95.8071 102 107 90.8071 107 77C107 63.1929 95.8071 52 82 52C68.1929 52 57 63.1929 57 77ZM102 77C102 88.0457 93.0457 97 82 97C70.9543 97 62 88.0457 62 77C62 65.9543 70.9543 57 82 57C93.0457 57 102 65.9543 102 77Z" fill="#00BBD3" fill-opacity="0.1"/>
<path d="M59.5 77C58.1193 77 56.987 78.1221 57.1249 79.4959C57.5325 83.5586 58.9308 87.4732 61.2133 90.8893C63.9603 95.0005 67.8648 98.2048 72.4329 100.097C77.0011 101.989 82.0277 102.484 86.8773 101.52C91.7268 100.555 96.1814 98.174 99.6777 94.6777C103.174 91.1814 105.555 86.7268 106.52 81.8773C107.484 77.0277 106.989 72.0011 105.097 67.4329C103.205 62.8648 100 58.9603 95.8893 56.2133C92.4732 53.9308 88.5586 52.5325 84.4959 52.1249C83.1221 51.987 82 53.1193 82 54.5C82 55.8807 83.1236 56.9839 84.4936 57.156C87.5656 57.5421 90.5181 58.6378 93.1114 60.3706C96.4004 62.5682 98.9638 65.6918 100.478 69.3463C101.991 73.0009 102.387 77.0222 101.616 80.9018C100.844 84.7814 98.9392 88.3451 96.1421 91.1421C93.3451 93.9392 89.7814 95.844 85.9018 96.6157C82.0222 97.3874 78.0009 96.9913 74.3463 95.4776C70.6918 93.9638 67.5682 91.4004 65.3706 88.1114C63.6378 85.5181 62.5421 82.5656 62.156 79.4936C61.9839 78.1236 60.8807 77 59.5 77Z" fill="url(#paint0_linear)"/>
<g opacity="0.05">
<rect x="59" y="221.542" width="15.5685" height="192.011" fill="#00BBD3"/>
<rect x="77.1636" y="221.542" width="15.5685" height="192.011" fill="#00BBD3"/>
<rect x="95.3271" y="221.542" width="15.5685" height="192.011" fill="#00BBD3"/>
<rect x="113.49" y="221.542" width="15.5685" height="192.011" fill="#00BBD3"/>
<rect x="131.653" y="221.542" width="15.5685" height="192.011" fill="#00BBD3"/>
<rect x="149.815" y="221.542" width="15.5685" height="192.011" fill="#00BBD3"/>
<rect x="167.979" y="221.542" width="15.5685" height="192.011" fill="#00BBD3"/>
<rect x="186.143" y="221.542" width="15.5685" height="192.011" fill="#00BBD3"/>
<rect x="204.306" y="221.542" width="15.5685" height="192.011" fill="#00BBD3"/>
<rect x="222.469" y="221.542" width="15.5685" height="192.011" fill="#00BBD3"/>
<rect x="240.632" y="221.542" width="15.5685" height="192.011" fill="#00BBD3"/>
<rect x="258.795" y="221.542" width="15.5685" height="192.011" fill="#00BBD3"/>
</g>
<path opacity="0.2" d="M94.0657 299.188L75.8835 334.684L59 413.956H274.589V221.625H221.341L184.327 263.21L148.612 272.957L129.781 299.188H94.0657Z" fill="url(#paint1_linear)"/>
<g filter="url(#filter2_d)">
<path d="M289.707 414.663C290.098 414.273 290.098 413.639 289.707 413.249L283.343 406.885C282.953 406.494 282.319 406.494 281.929 406.885C281.538 407.276 281.538 407.909 281.929 408.299L287.586 413.956L281.929 419.613C281.538 420.003 281.538 420.637 281.929 421.027C282.319 421.418 282.953 421.418 283.343 421.027L289.707 414.663ZM59 414.956H289V412.956H59V414.956Z" fill="#00BBD3"/>
</g>
<g filter="url(#filter3_d)">
<path d="M59.7071 207.293C59.3166 206.902 58.6834 206.902 58.2929 207.293L51.9289 213.657C51.5384 214.047 51.5384 214.681 51.9289 215.071C52.3194 215.462 52.9526 215.462 53.3431 215.071L59 209.414L64.6568 215.071C65.0474 215.462 65.6805 215.462 66.0711 215.071C66.4616 214.681 66.4616 214.047 66.0711 213.657L59.7071 207.293ZM60 415L60 208L58 208L58 415L60 415Z" fill="#00BBD3"/>
</g>
<path d="M59 413.956L75.8835 334.035L94.0657 299.438H130.43L148.612 272.957L184.614 263.468L221.341 221.625H274.589" stroke="#00BBD3" stroke-width="2"/>
<g filter="url(#filter4_d)">
<path fill-rule="evenodd" clip-rule="evenodd" d="M109 133.5C109 132.672 108.328 132 107.5 132C106.672 132 106 132.672 106 133.5V163.5C106 164.328 106.672 165 107.5 165C108.328 165 109 164.328 109 163.5V133.5ZM133 134.5C133 133.672 132.328 133 131.5 133C130.672 133 130 133.672 130 134.5V162.5C130 163.328 130.672 164 131.5 164C132.328 164 133 163.328 133 162.5V134.5ZM155.5 137C156.328 137 157 137.672 157 138.5V158.5C157 159.328 156.328 160 155.5 160C154.672 160 154 159.328 154 158.5V138.5C154 137.672 154.672 137 155.5 137ZM229 138.5C229 137.672 228.328 137 227.5 137C226.672 137 226 137.672 226 138.5V158.5C226 159.328 226.672 160 227.5 160C228.328 160 229 159.328 229 158.5V138.5ZM179.5 141C180.328 141 181 141.672 181 142.5V154.5C181 155.328 180.328 156 179.5 156C178.672 156 178 155.328 178 154.5V142.5C178 141.672 178.672 141 179.5 141ZM205 142.5C205 141.672 204.328 141 203.5 141C202.672 141 202 141.672 202 142.5V155.5C202 156.328 202.672 157 203.5 157C204.328 157 205 156.328 205 155.5V142.5ZM197.5 145C198.328 145 199 145.672 199 146.5V150.5C199 151.328 198.328 152 197.5 152C196.672 152 196 151.328 196 150.5V146.5C196 145.672 196.672 145 197.5 145ZM193 146.5C193 145.672 192.328 145 191.5 145C190.672 145 190 145.672 190 146.5V150.5C190 151.328 190.672 152 191.5 152C192.328 152 193 151.328 193 150.5V146.5ZM185.5 144C186.328 144 187 144.672 187 145.5V151.5C187 152.328 186.328 153 185.5 153C184.672 153 184 152.328 184 151.5V145.5C184 144.672 184.672 144 185.5 144ZM163 145.5C163 144.672 162.328 144 161.5 144C160.672 144 160 144.672 160 145.5V151.5C160 152.328 160.672 153 161.5 153C162.328 153 163 152.328 163 151.5V145.5ZM137.5 144C138.328 144 139 144.672 139 145.5V151.5C139 152.328 138.328 153 137.5 153C136.672 153 136 152.328 136 151.5V145.5C136 144.672 136.672 144 137.5 144ZM211 145.5C211 144.672 210.328 144 209.5 144C208.672 144 208 144.672 208 145.5V151.5C208 152.328 208.672 153 209.5 153C210.328 153 211 152.328 211 151.5V145.5ZM101.5 144C102.328 144 103 144.672 103 145.5V151.5C103 152.328 102.328 153 101.5 153C100.672 153 100 152.328 100 151.5V145.5C100 144.672 100.672 144 101.5 144ZM145 146.5C145 145.672 144.328 145 143.5 145C142.672 145 142 145.672 142 146.5V150.5C142 151.328 142.672 152 143.5 152C144.328 152 145 151.328 145 150.5V146.5ZM215.5 145C216.328 145 217 145.672 217 146.5V150.5C217 151.328 216.328 152 215.5 152C214.672 152 214 151.328 214 150.5V146.5C214 145.672 214.672 145 215.5 145ZM169 146.5C169 145.672 168.328 145 167.5 145C166.672 145 166 145.672 166 146.5V150.5C166 151.328 166.672 152 167.5 152C168.328 152 169 151.328 169 150.5V146.5ZM173.5 145C174.328 145 175 145.672 175 146.5V150.5C175 151.328 174.328 152 173.5 152C172.672 152 172 151.328 172 150.5V146.5C172 145.672 172.672 145 173.5 145ZM115 146.5C115 145.672 114.328 145 113.5 145C112.672 145 112 145.672 112 146.5V150.5C112 151.328 112.672 152 113.5 152C114.328 152 115 151.328 115 150.5V146.5ZM233.5 145C234.328 145 235 145.672 235 146.5V150.5C235 151.328 234.328 152 233.5 152C232.672 152 232 151.328 232 150.5V146.5C232 145.672 232.672 145 233.5 145ZM151 147.5C151 146.672 150.328 146 149.5 146C148.672 146 148 146.672 148 147.5V149.5C148 150.328 148.672 151 149.5 151C150.328 151 151 150.328 151 149.5V147.5ZM221.5 146C222.328 146 223 146.672 223 147.5V149.5C223 150.328 222.328 151 221.5 151C220.672 151 220 150.328 220 149.5V147.5C220 146.672 220.672 146 221.5 146ZM127 147.5C127 146.672 126.328 146 125.5 146C124.672 146 124 146.672 124 147.5V149.5C124 150.328 124.672 151 125.5 151C126.328 151 127 150.328 127 149.5V147.5ZM245.5 146C246.328 146 247 146.672 247 147.5V149.5C247 150.328 246.328 151 245.5 151C244.672 151 244 150.328 244 149.5V147.5C244 146.672 244.672 146 245.5 146ZM121 147.5C121 146.672 120.328 146 119.5 146C118.672 146 118 146.672 118 147.5V149.5C118 150.328 118.672 151 119.5 151C120.328 151 121 150.328 121 149.5V147.5ZM239.5 146C240.328 146 241 146.672 241 147.5V149.5C241 150.328 240.328 151 239.5 151C238.672 151 238 150.328 238 149.5V147.5C238 146.672 238.672 146 239.5 146ZM91 147.5C91 146.672 90.3284 146 89.5 146C88.6716 146 88 146.672 88 147.5V149.5C88 150.328 88.6716 151 89.5 151C90.3284 151 91 150.328 91 149.5V147.5ZM83.5 146C84.3284 146 85 146.672 85 147.5L85 149.5C85 150.328 84.3284 151 83.5 151C82.6716 151 82 150.328 82 149.5V147.5C82 146.672 82.6716 146 83.5 146ZM97 147.5C97 146.672 96.3284 146 95.5 146C94.6716 146 94 146.672 94 147.5V149.5C94 150.328 94.6716 151 95.5 151C96.3284 151 97 150.328 97 149.5V147.5Z" fill="#00BBD3"/>
</g>
<defs>
<filter id="filter0_d" x="0" y="0" width="331" height="463" filterUnits="userSpaceOnUse" color-interpolation-filters="sRGB">
<feFlood flood-opacity="0" result="BackgroundImageFix"/>
<feColorMatrix in="SourceAlpha" type="matrix" values="0 0 0 0 0 0 0 0 0 0 0 0 0 0 0 0 0 0 127 0"/>
<feOffset/>
<feGaussianBlur stdDeviation="5"/>
<feColorMatrix type="matrix" values="0 0 0 0 0 0 0 0 0 0.733333 0 0 0 0 0.827451 0 0 0 0.36 0"/>
<feBlend mode="normal" in2="BackgroundImageFix" result="effect1_dropShadow"/>
<feBlend mode="normal" in="SourceGraphic" in2="effect1_dropShadow" result="shape"/>
</filter>
<filter id="filter1_d" x="47" y="115" width="239" height="69" filterUnits="userSpaceOnUse" color-interpolation-filters="sRGB">
<feFlood flood-opacity="0" result="BackgroundImageFix"/>
<feColorMatrix in="SourceAlpha" type="matrix" values="0 0 0 0 0 0 0 0 0 0 0 0 0 0 0 0 0 0 127 0"/>
<feOffset/>
<feGaussianBlur stdDeviation="5"/>
<feColorMatrix type="matrix" values="0 0 0 0 0 0 0 0 0 0.733333 0 0 0 0 0.827451 0 0 0 0.36 0"/>
<feBlend mode="normal" in2="BackgroundImageFix" result="effect1_dropShadow"/>
<feBlend mode="normal" in="SourceGraphic" in2="effect1_dropShadow" result="shape"/>
</filter>
<filter id="filter2_d" x="49" y="396.592" width="251" height="34.7279" filterUnits="userSpaceOnUse" color-interpolation-filters="sRGB">
<feFlood flood-opacity="0" result="BackgroundImageFix"/>
<feColorMatrix in="SourceAlpha" type="matrix" values="0 0 0 0 0 0 0 0 0 0 0 0 0 0 0 0 0 0 127 0"/>
<feOffset/>
<feGaussianBlur stdDeviation="5"/>
<feColorMatrix type="matrix" values="0 0 0 0 0 0 0 0 0 0.733333 0 0 0 0 0.827451 0 0 0 0.36 0"/>
<feBlend mode="normal" in2="BackgroundImageFix" result="effect1_dropShadow"/>
<feBlend mode="normal" in="SourceGraphic" in2="effect1_dropShadow" result="shape"/>
</filter>
<filter id="filter3_d" x="41.6362" y="197" width="34.7279" height="228" filterUnits="userSpaceOnUse" color-interpolation-filters="sRGB">
<feFlood flood-opacity="0" result="BackgroundImageFix"/>
<feColorMatrix in="SourceAlpha" type="matrix" values="0 0 0 0 0 0 0 0 0 0 0 0 0 0 0 0 0 0 127 0"/>
<feOffset/>
<feGaussianBlur stdDeviation="5"/>
<feColorMatrix type="matrix" values="0 0 0 0 0 0 0 0 0 0.733333 0 0 0 0 0.827451 0 0 0 0.36 0"/>
<feBlend mode="normal" in2="BackgroundImageFix" result="effect1_dropShadow"/>
<feBlend mode="normal" in="SourceGraphic" in2="effect1_dropShadow" result="shape"/>
</filter>
<filter id="filter4_d" x="72" y="122" width="185" height="53" filterUnits="userSpaceOnUse" color-interpolation-filters="sRGB">
<feFlood flood-opacity="0" result="BackgroundImageFix"/>
<feColorMatrix in="SourceAlpha" type="matrix" values="0 0 0 0 0 0 0 0 0 0 0 0 0 0 0 0 0 0 127 0"/>
<feOffset/>
<feGaussianBlur stdDeviation="5"/>
<feColorMatrix type="matrix" values="0 0 0 0 0 0 0 0 0 0.733333 0 0 0 0 0.827451 0 0 0 0.36 0"/>
<feBlend mode="normal" in2="BackgroundImageFix" result="effect1_dropShadow"/>
<feBlend mode="normal" in="SourceGraphic" in2="effect1_dropShadow" result="shape"/>
</filter>
<linearGradient id="paint0_linear" x1="61.8387" y1="80.0242" x2="84.4194" y2="55.2258" gradientUnits="userSpaceOnUse">
<stop stop-color="#00BBD3"/>
<stop offset="1" stop-color="#00BBD3" stop-opacity="0"/>
</linearGradient>
<linearGradient id="paint1_linear" x1="166.794" y1="221.625" x2="166.794" y2="413.956" gradientUnits="userSpaceOnUse">
<stop stop-color="#00BBD3" stop-opacity="0.36"/>
<stop offset="1" stop-color="#00BBD3"/>
</linearGradient>
</defs>
</svg>

<svg width="331" height="463" fill="none" xmlns="http://www.w3.org/2000/svg"><g filter="url(#filter0_d)"><rect x="11" y="11" width="309" height="441" rx="20" stroke="#00BBD3" stroke-width="2"/></g><g filter="url(#filter1_d)"><rect x="58" y="173" width="47" height="217" rx="4" transform="rotate(-90 58 173)" stroke="#00BBD3" stroke-width="2"/></g><path opacity=".2" fill="#00BBD3" d="M267 65v-6H129.001v6zm0 10v-6H129.001v6zm0 10v-6H129.001v6zm-22.672 10v-6H129v6z"/><path d="M57 77c0 13.807 11.193 25 25 25s25-11.193 25-25-11.193-25-25-25-25 11.193-25 25zm45 0c0 11.046-8.954 20-20 20s-20-8.954-20-20 8.954-20 20-20 20 8.954 20 20z" fill="#00BBD3" fill-opacity=".1"/><path d="M59.5 77c-1.38 0-2.513 1.122-2.375 2.496a25 25 0 1027.37-27.371C83.123 51.987 82 53.119 82 54.5c0 1.38 1.124 2.484 2.494 2.656a20 20 0 11-22.338 22.338C61.984 78.124 60.881 77 59.5 77z" fill="url(#paint0_linear)"/><path d="M59 221.542h15.569v192.011H59zm18.164 0h15.569v192.011H77.164zm18.163 0h15.569v192.011H95.327zm18.163 0h15.569v192.011H113.49zm18.163 0h15.569v192.011h-15.569zm18.162 0h15.569v192.011h-15.569zm18.164 0h15.569v192.011h-15.569zm18.164 0h15.569v192.011h-15.569zm18.163 0h15.569v192.011h-15.569zm18.163 0h15.569v192.011h-15.569zm18.163 0h15.569v192.011h-15.569zm18.163 0h15.569v192.011h-15.569z" opacity=".05" fill="#00BBD3"/><path opacity=".2" d="M94.066 299.188l-18.183 35.496L59 413.956h215.589V221.625h-53.248l-37.014 41.585-35.715 9.747-18.831 26.231H94.066z" fill="url(#paint1_linear)"/><g filter="url(#filter2_d)"><path d="M289.707 414.663a.999.999 0 000-1.414l-6.364-6.364a.999.999 0 10-1.414 1.414l5.657 5.657-5.657 5.657a.999.999 0 101.414 1.414l6.364-6.364zM59 414.956h230v-2H59v2z" fill="#00BBD3"/></g><g filter="url(#filter3_d)"><path d="M59.707 207.293a1 1 0 00-1.414 0l-6.364 6.364a1 1 0 101.414 1.414L59 209.414l5.657 5.657a1 1 0 101.414-1.414l-6.364-6.364zM60 415V208h-2v207h2z" fill="#00BBD3"/></g><path d="M59 413.956l16.883-79.921 18.183-34.597h36.364l18.182-26.481 36.002-9.489 36.727-41.843h53.248" stroke="#00BBD3" stroke-width="2"/><g filter="url(#filter4_d)"><path fill-rule="evenodd" clip-rule="evenodd" d="M109 133.5a1.5 1.5 0 00-3 0v30a1.5 1.5 0 003 0v-30zm24 1a1.5 1.5 0 00-3 0v28a1.5 1.5 0 003 0v-28zm22.5 2.5a1.5 1.5 0 011.5 1.5v20a1.5 1.5 0 01-3 0v-20a1.5 1.5 0 011.5-1.5zm73.5 1.5a1.5 1.5 0 00-3 0v20a1.5 1.5 0 003 0v-20zm-49.5 2.5a1.5 1.5 0 011.5 1.5v12a1.5 1.5 0 01-3 0v-12a1.5 1.5 0 011.5-1.5zm25.5 1.5a1.5 1.5 0 00-3 0v13a1.5 1.5 0 003 0v-13zm-7.5 2.5a1.5 1.5 0 011.5 1.5v4a1.5 1.5 0 01-3 0v-4a1.5 1.5 0 011.5-1.5zm-4.5 1.5a1.5 1.5 0 00-3 0v4a1.5 1.5 0 003 0v-4zm-7.5-2.5a1.5 1.5 0 011.5 1.5v6a1.5 1.5 0 01-3 0v-6a1.5 1.5 0 011.5-1.5zm-22.5 1.5a1.5 1.5 0 00-3 0v6a1.5 1.5 0 003 0v-6zm-25.5-1.5a1.5 1.5 0 011.5 1.5v6a1.5 1.5 0 01-3 0v-6a1.5 1.5 0 011.5-1.5zm73.5 1.5a1.5 1.5 0 00-3 0v6a1.5 1.5 0 003 0v-6zM101.5 144a1.5 1.5 0 011.5 1.5v6a1.5 1.5 0 01-3 0v-6a1.5 1.5 0 011.5-1.5zm43.5 2.5a1.5 1.5 0 00-3 0v4a1.5 1.5 0 003 0v-4zm70.5-1.5a1.5 1.5 0 011.5 1.5v4a1.5 1.5 0 01-3 0v-4a1.5 1.5 0 011.5-1.5zm-46.5 1.5a1.5 1.5 0 00-3 0v4a1.5 1.5 0 003 0v-4zm4.5-1.5a1.5 1.5 0 011.5 1.5v4a1.5 1.5 0 01-3 0v-4a1.5 1.5 0 011.5-1.5zm-58.5 1.5a1.5 1.5 0 00-3 0v4a1.5 1.5 0 003 0v-4zm118.5-1.5a1.5 1.5 0 011.5 1.5v4a1.5 1.5 0 01-3 0v-4a1.5 1.5 0 011.5-1.5zm-82.5 2.5a1.5 1.5 0 00-3 0v2a1.5 1.5 0 003 0v-2zm70.5-1.5a1.5 1.5 0 011.5 1.5v2a1.5 1.5 0 01-3 0v-2a1.5 1.5 0 011.5-1.5zm-94.5 1.5a1.5 1.5 0 00-3 0v2a1.5 1.5 0 003 0v-2zm118.5-1.5a1.5 1.5 0 011.5 1.5v2a1.5 1.5 0 01-3 0v-2a1.5 1.5 0 011.5-1.5zM121 147.5a1.5 1.5 0 00-3 0v2a1.5 1.5 0 003 0v-2zm118.5-1.5a1.5 1.5 0 011.5 1.5v2a1.5 1.5 0 01-3 0v-2a1.5 1.5 0 011.5-1.5zM91 147.5a1.5 1.5 0 00-3 0v2a1.5 1.5 0 003 0v-2zm-7.5-1.5a1.5 1.5 0 011.5 1.5v2a1.5 1.5 0 01-3 0v-2a1.5 1.5 0 011.5-1.5zm13.5 1.5a1.5 1.5 0 00-3 0v2a1.5 1.5 0 003 0v-2z" fill="#00BBD3"/></g><defs><filter id="filter0_d" x="0" y="0" width="331" height="463" filterUnits="userSpaceOnUse" color-interpolation-filters="sRGB"><feFlood flood-opacity="0" result="BackgroundImageFix"/><feColorMatrix in="SourceAlpha" values="0 0 0 0 0 0 0 0 0 0 0 0 0 0 0 0 0 0 127 0"/><feOffset/><feGaussianBlur stdDeviation="5"/><feColorMatrix values="0 0 0 0 0 0 0 0 0 0.733333 0 0 0 0 0.827451 0 0 0 0.36 0"/><feBlend in2="BackgroundImageFix" result="effect1_dropShadow"/><feBlend in="SourceGraphic" in2="effect1_dropShadow" result="shape"/></filter><filter id="filter1_d" x="47" y="115" width="239" height="69" filterUnits="userSpaceOnUse" color-interpolation-filters="sRGB"><feFlood flood-opacity="0" result="BackgroundImageFix"/><feColorMatrix in="SourceAlpha" values="0 0 0 0 0 0 0 0 0 0 0 0 0 0 0 0 0 0 127 0"/><feOffset/><feGaussianBlur stdDeviation="5"/><feColorMatrix values="0 0 0 0 0 0 0 0 0 0.733333 0 0 0 0 0.827451 0 0 0 0.36 0"/><feBlend in2="BackgroundImageFix" result="effect1_dropShadow"/><feBlend in="SourceGraphic" in2="effect1_dropShadow" result="shape"/></filter><filter id="filter2_d" x="49" y="396.592" width="251" height="34.728" filterUnits="userSpaceOnUse" color-interpolation-filters="sRGB"><feFlood flood-opacity="0" result="BackgroundImageFix"/><feColorMatrix in="SourceAlpha" values="0 0 0 0 0 0 0 0 0 0 0 0 0 0 0 0 0 0 127 0"/><feOffset/><feGaussianBlur stdDeviation="5"/><feColorMatrix values="0 0 0 0 0 0 0 0 0 0.733333 0 0 0 0 0.827451 0 0 0 0.36 0"/><feBlend in2="BackgroundImageFix" result="effect1_dropShadow"/><feBlend in="SourceGraphic" in2="effect1_dropShadow" result="shape"/></filter><filter id="filter3_d" x="41.636" y="197" width="34.728" height="228" filterUnits="userSpaceOnUse" color-interpolation-filters="sRGB"><feFlood flood-opacity="0" result="BackgroundImageFix"/><feColorMatrix in="SourceAlpha" values="0 0 0 0 0 0 0 0 0 0 0 0 0 0 0 0 0 0 127 0"/><feOffset/><feGaussianBlur stdDeviation="5"/><feColorMatrix values="0 0 0 0 0 0 0 0 0 0.733333 0 0 0 0 0.827451 0 0 0 0.36 0"/><feBlend in2="BackgroundImageFix" result="effect1_dropShadow"/><feBlend in="SourceGraphic" in2="effect1_dropShadow" result="shape"/></filter><filter id="filter4_d" x="72" y="122" width="185" height="53" filterUnits="userSpaceOnUse" color-interpolation-filters="sRGB"><feFlood flood-opacity="0" result="BackgroundImageFix"/><feColorMatrix in="SourceAlpha" values="0 0 0 0 0 0 0 0 0 0 0 0 0 0 0 0 0 0 127 0"/><feOffset/><feGaussianBlur stdDeviation="5"/><feColorMatrix values="0 0 0 0 0 0 0 0 0 0.733333 0 0 0 0 0.827451 0 0 0 0.36 0"/><feBlend in2="BackgroundImageFix" result="effect1_dropShadow"/><feBlend in="SourceGraphic" in2="effect1_dropShadow" result="shape"/></filter><linearGradient id="paint0_linear" x1="61.839" y1="80.024" x2="84.419" y2="55.226" gradientUnits="userSpaceOnUse"><stop stop-color="#00BBD3"/><stop offset="1" stop-color="#00BBD3" stop-opacity="0"/></linearGradient><linearGradient id="paint1_linear" x1="166.794" y1="221.625" x2="166.794" y2="413.956" gradientUnits="userSpaceOnUse"><stop stop-color="#00BBD3" stop-opacity=".36"/><stop offset="1" stop-color="#00BBD3"/></linearGradient></defs></svg>
